packages/tokens/icons/shieldCheck/size32Px.svg

<svg viewBox="0 0 32 32" fill="none" xmlns="http://www.w3.org/2000/svg" width="1em" height="1em"><path d="M6.12201 5.42927C10.3507 6.74246 13.5754 4.29697 15.2848 2.69722C15.688 2.31984 16.3119 2.31984 16.7151 2.69722C18.4245 4.29697 21.6493 6.74246 25.8779 5.42927C26.4744 5.24402 27.1409 5.55854 27.2601 6.17169C28.4321 12.2001 27.7448 21.7132 16.5643 29.6089C16.2291 29.8457 15.7708 29.8457 15.4356 29.6089C4.25502 21.7132 3.56786 12.2001 4.73983 6.1717C4.85903 5.55854 5.52547 5.24402 6.12201 5.42927Z" stroke="currentColor" stroke-linecap="round"/><path d="M11.5 15.5L15.32 19.4999L22.5 11.5" stroke="currentColor" stroke-linecap="round" stroke-linejoin="round"/></svg>

<svg xmlns="http://www.w3.org/2000/svg" fill="none" viewBox="0 0 32 32" width="1em" height="1em"><path stroke="currentColor" stroke-linecap="round" d="M6.122 5.43c4.229 1.312 7.453-1.133 9.163-2.733a1.045 1.045 0 0 1 1.43 0c1.71 1.6 4.934 4.045 9.163 2.732.596-.185 1.263.13 1.382.743 1.172 6.028.485 15.541-10.696 23.437a.985.985 0 0 1-1.128 0C4.255 21.713 3.568 12.2 4.74 6.172c.119-.613.785-.928 1.382-.743Z"/><path stroke="currentColor" stroke-linecap="round" stroke-linejoin="round" d="m11.5 15.5 3.82 4 7.18-8"/></svg>
